packages/icons/src/docker-ci-step-inverse.svg

<svg fill="none" viewBox="0 0 41 41" xmlns="http://www.w3.org/2000/svg" xmlns:xlink="http://www.w3.org/1999/xlink"><clipPath id="a"><path d="m.661621.967606h40v40h-40z"/></clipPath><g clip-path="url(#a)"><path d="m39.836 17.5498c-.9007-.625-2.9649-.8594-4.5787-.5469-.1877-1.5624-1.0508-2.9296-2.552-4.1404l-.8633-.625-.6005.8984c-.7505 1.1718-1.1259 2.8124-1.0132 4.3749.0375.5468.2252 1.5233.788 2.3826-.5253.3125-1.6137.703-3.0398.703h-27.134445l-.075061.3125c-.262712 1.5625-.262712 6.4452 2.814756 10.195 2.32689 2.8515 5.77967 4.2967 10.32085 4.2967 9.8329 0 17.1137-4.7263 20.529-13.2807 1.351.039 4.2409 0 5.7045-2.9296.0377-.078.1127-.2344.3754-.8202l.1501-.3125zm-17.3015-11.01521h-4.1284v3.90611h4.1284zm0 4.68731h-4.1284v3.9061h4.1284zm-4.8789 0h-4.1283v3.9061h4.1283zm-4.8789 0h-4.12836v3.9061h4.12836zm-4.87896 4.6873h-4.12834v3.9061h4.12834zm4.87896 0h-4.12836v3.9061h4.12836zm4.8789 0h-4.1283v3.9061h4.1283zm4.8789 0h-4.1284v3.9061h4.1284zm4.879 0h-4.1284v3.9061h4.1284z" fill="#fff"/></g></svg>

<svg viewBox="0 0 41 41" fill="none" xmlns="http://www.w3.org/2000/svg">
<g clip-path="url(#clip0_2952_319003)">
<path d="M39.836 17.5498C38.9353 16.9248 36.8711 16.6904 35.2573 17.0029C35.0696 15.4405 34.2065 14.0733 32.7053 12.8625L31.842 12.2375L31.2415 13.1359C30.491 14.3077 30.1156 15.9483 30.2283 17.5108C30.2658 18.0576 30.4535 19.0341 31.0163 19.8934C30.491 20.2059 29.4026 20.5964 27.9765 20.5964H0.842055L0.766994 20.9089C0.504282 22.4714 0.504282 27.3541 3.58175 31.1039C5.90864 33.9554 9.36142 35.4006 13.9026 35.4006C23.7355 35.4006 31.0163 30.6743 34.4316 22.1199C35.7826 22.1589 38.6725 22.1199 40.1361 19.1903C40.1738 19.1123 40.2488 18.9559 40.5115 18.3701L40.6616 18.0576L39.836 17.5498ZM22.5345 6.53459H18.4061V10.4407H22.5345V6.53459ZM22.5345 11.2219H18.4061V15.128H22.5345V11.2219ZM17.6556 11.2219H13.5273V15.128H17.6556V11.2219ZM12.7767 11.2219H8.64834V15.128H12.7767V11.2219ZM7.89774 15.9092H3.7694V19.8153H7.89774V15.9092ZM12.7767 15.9092H8.64834V19.8153H12.7767V15.9092ZM17.6556 15.9092H13.5273V19.8153H17.6556V15.9092ZM22.5345 15.9092H18.4061V19.8153H22.5345V15.9092ZM27.4135 15.9092H23.2851V19.8153H27.4135V15.9092Z" fill="white"/>
</g>
<defs>
<clipPath id="clip0_2952_319003">
<rect width="40" height="40" fill="white" transform="translate(0.661621 0.967606)"/>
</clipPath>
</defs>
</svg>
